X:1
T:Title
%%score { ( 1 4 ) | ( 2 3 ) }
L:1/8
Q:1/4=100
M:3/4
K:Eb
V:1 treble nm="Grand Piano"
V:4 treble 
V:2 bass 
V:3 bass 
V:1
 G2 E2 [B,EG]2 | B4 z2 | [EGB]2 G2 [EGB]2 | e4 z2 | [Ee]4 [Ec]2 | [EGB]4 [B,EG]2 | %6
w: J.~Calvin~Bushey * *||||||
 [B,EG]2 [DF]2 [G,E]2 | B6 | [B,EG]2 E2 [B,EG]2 | B4 z2 | [EGB]2 G2 [EGB]2 | e4 z2 | [Ee]4 [Ec]2 | %13
w: |||||||
 [EGB]4 [G,EG]2 | [B,DG]4 [A,DF]2 | [G,E]6 | z6 | B6 | B2 G2 B2 | e6 | e4 c2 | [EGB]4 [B,EG]2 | %22
w: |||||||||
 [B,EG]2 [DF]2 [G,E]2 |[M:7/8] B-B-B- B- B3 |[M:3/4] z6 | B6 | B2 G2 B2 | e6 | e4 c2 | %29
w: |||||||
 [EGB]4 [=A,EG]2 | [B,DG]4 [A,DF]2 | [G,E]6 |] %32
w: |||
V:2
 [CE]2 z2 z2 | E,2 G,2 F,2 | z2 E2 E,2 | B,2 z2 [E,B,]2 | [A,C]4 A,2 | E,4 E,2 | z2 A,2 B,,2 | %7
 F,2 G,2 A,2 | z2 G,2 E,2 | E,2 G,2 F,2 | z2 E2 E,2 | B,2 z2 [E,B,]2 | [A,C]4 A,2 | E,4 C,2 | %14
 B,,4 B,,2 | E,6 | G2 E2 G2 | E,2 G,2 [F,B,]2 | z6 | [E,B,]2 [E,C]2 [E,B,]2 | [A,CE]4 [A,E]2 | %21
 E,4 E,2 | z2 A,2 C,2 |[M:7/8] F,2 G,2 A,3 |[M:3/4][K:treble] G2 E2 G2 | E,2 G,2 [F,B,]2 | z6 | %27
 [E,B,]2 [E,C]2 [E,B,]2 | [A,CE]4 [A,E]2 | E,4 C,2 | B,,4 B,,2 | E,6 |] %32
V:3
 E,2- [E,G,]2 E,2 | x6 | E,4 z2 | E,4 z2 | x6 | x6 | B,,4 z2 | B,,6 | E,4 z2 | x6 | E,4 z2 | %11
 E,4 z2 | x6 | x6 | x6 | x6 | x6 | x6 | x6 | x6 | x6 | x6 | B,,4 z2 | %23
[M:7/8] B,,-B,,-B,,- B,,- B,,3 |[M:3/4][K:treble] x6 | x6 | x6 | x6 | x6 | x6 | x6 | x6 |] %32
V:4
 x6 | [EG]2 E2 [B,DB]2 | x6 | G2 [CA]2 [Ge]2 | x6 | x6 | x6 | D2 E2 F2 | x6 | [EG]2 E2 [B,DB]2 | %10
 x6 | G2 [CA]2 [Ge]2 | x6 | x6 | x6 | x6 | x6 | [EG]2 E2 D2 | x6 | G2 A2 G2 | x6 | x6 | x6 | %23
[M:7/8] D2 E2 F3 |[M:3/4] x6 | [EG]2 E2 D2 | x6 | G2 A2 G2 | x6 | x6 | x6 | x6 |] %32

